public/svg/messenger.svg

<svg enable-background="new 0 0 31 31" viewBox="0 0 31 31" xmlns="http://www.w3.org/2000/svg" xmlns:xlink="http://www.w3.org/1999/xlink"><linearGradient id="a" gradientTransform="matrix(29 0 0 -29 3557 8796.4922)" gradientUnits="userSpaceOnUse" x1="-122.1552" x2="-122.1552" y1="303.3015" y2="302.3015"><stop offset="0" stop-color="#4db9ec"/><stop offset="1" stop-color="#5c6ddd"/></linearGradient><path d="m14.5.8c-8 0-14.5 6.4-14.5 14.5 0 2.5.7 5 1.9 7.2l-1.9 5.8c-.1.4 0 .8.3 1.1s.7.4 1.1.3l5.8-1.9c2.2 1.3 4.7 1.9 7.2 1.9 8 0 14.5-6.5 14.5-14.5.1-8-6.4-14.4-14.4-14.4zm0 26.7c-2.3 0-4.5-.6-6.5-1.9-.3-.2-.6-.2-.9-.1l-4.2 1.3 1.3-4.2c.1-.3.1-.7-.1-.9-1.2-1.9-1.9-4.2-1.9-6.5.1-6.7 5.6-12.2 12.3-12.2s12.2 5.5 12.2 12.2-5.5 12.3-12.2 12.3zm1.4-12.2c0 .8-.6 1.4-1.4 1.4s-1.4-.6-1.4-1.4.6-1.4 1.4-1.4 1.4.6 1.4 1.4zm5.7 0c0 .8-.6 1.4-1.4 1.4s-1.4-.6-1.4-1.4.6-1.4 1.4-1.4 1.4.6 1.4 1.4zm-11.3 0c0 .8-.6 1.4-1.4 1.4s-1.4-.6-1.4-1.4.6-1.4 1.4-1.4c.7-.1 1.4.6 1.4 1.4z" fill="url(#a)" transform="translate(1 .25)"/></svg>

<?xml version="1.0" encoding="utf-8"?>
<!-- Generator: Adobe Illustrator 24.0.3, SVG Export Plug-In . SVG Version: 6.00 Build 0)  -->
<svg version="1.1" id="Calque_1" xmlns="http://www.w3.org/2000/svg" xmlns:xlink="http://www.w3.org/1999/xlink" x="0px" y="0px"
	 viewBox="0 0 31 31" style="enable-background:new 0 0 31 31;" xml:space="preserve">
<style type="text/css">
	.st0{fill:url(#Shape_1_);}
</style>
<title>messenger</title>
<g id="Page-1">
	<g id="Dashboard-user-desktop" transform="translate(-871.000000, -189.000000)">
		<g id="messenger" transform="translate(872.000000, 189.250000)">
			
				<linearGradient id="Shape_1_" gradientUnits="userSpaceOnUse" x1="-122.1552" y1="303.3015" x2="-122.1552" y2="302.3015" gradientTransform="matrix(29 0 0 -29 3557 8796.4922)">
				<stop  offset="0" style="stop-color:#4DB9EC"/>
				<stop  offset="1" style="stop-color:#5C6DDD"/>
			</linearGradient>
			<path id="Shape" class="st0" d="M14.5,0.8C6.5,0.8,0,7.2,0,15.3c0,2.5,0.7,5,1.9,7.2l-1.9,5.8c-0.1,0.4,0,0.8,0.3,1.1
				c0.3,0.3,0.7,0.4,1.1,0.3l5.8-1.9c2.2,1.3,4.7,1.9,7.2,1.9c8,0,14.5-6.5,14.5-14.5C29,7.2,22.5,0.8,14.5,0.8z M14.5,27.5
				c-2.3,0-4.5-0.6-6.5-1.9c-0.3-0.2-0.6-0.2-0.9-0.1l-4.2,1.3l1.3-4.2c0.1-0.3,0.1-0.7-0.1-0.9c-1.2-1.9-1.9-4.2-1.9-6.5
				C2.3,8.5,7.8,3,14.5,3s12.2,5.5,12.2,12.2S21.2,27.5,14.5,27.5z M15.9,15.3c0,0.8-0.6,1.4-1.4,1.4s-1.4-0.6-1.4-1.4
				c0-0.8,0.6-1.4,1.4-1.4S15.9,14.5,15.9,15.3z M21.6,15.3c0,0.8-0.6,1.4-1.4,1.4s-1.4-0.6-1.4-1.4c0-0.8,0.6-1.4,1.4-1.4
				S21.6,14.5,21.6,15.3z M10.3,15.3c0,0.8-0.6,1.4-1.4,1.4c-0.8,0-1.4-0.6-1.4-1.4c0-0.8,0.6-1.4,1.4-1.4
				C9.6,13.8,10.3,14.5,10.3,15.3z"/>
		</g>
	</g>
</g>
</svg>
